X: 1
T: My Wild Irish Rose
C: Music and Lyrics by Chauncey Olcott (1899)
N: Irish-American, composed for the New York theater show "A Romance of Athlone".
M: 3/4
L: 1/4
K: C
E/F/ \
| "C"GAB | "C+"ce>d | "F"dcA | "C"c2E/F/ | "C"GAc | "D7"de>d |"G7"d3- | d2 E/F/ |
| "C"GAB | "C+"ce>d | "F"dcA | "C"c2E/F/ | "C"GAc | "G7"dc>B | "C"c3- | c2e     |
|"G7"def |   f2e/d/ | "C"cde |    e2e    |"D7"edc |     ABc  |"G7"d3- | d2E/F/  |
| "C"GAB | "C+"ce>d | "F"dcA | "C"c2E/F/ | "C"GAc | "G7"dc>B | "C"c3- | c2     ||
"G7"G "Chorus"\
| "C"e3 | "G7"e3d | "C"c3- | "C7"c2c \
| "F"cc2 | "G7"B2A | "C"G3- | G2 E/E/ |
| "F"FGA | "C"G2E | "F"FGA | "C"G2B/c/ \
|1 "D7"A3 | e2d | "G7"d3- | d2 :|
|2 "D7"ABc | "G7"dcB | "C"c3- | c2 \
:|["Coda" "D7"ABc | "G7"cHd3/c/ | "C"c3- | c2 |]
